X:1

T:Whiskey and Beer

M:6/8

L:1/8

R:Slip Jig

S:Ryan’s Mammoth Collection (1883)

Z:AK/Fiddler’s Companion

K:D

ABA A2G F2G | ABA A2B cBA | ABA A2G F2G | A2d d2c d3 | ABA A2G F2G |

ABA A2B cBA | ABA A2G F2G | A2d d2c d3 || A2g f2d e2c | ABA A2B c2A |

A2g f2d c2A | A2d d2c d3 | A2g f2d e2c | ABA A2B c2A | d2A A2G F2G | A2d d2c d3 ||

 

WHISKEY AND BRANDY. Irish, Jig. G Major. Standard tuning. AABB. Kennedy (Traditional Dance Music of Britain and Ireland: Jigs & Quicksteps, Trips & Humours), 1997; No. 194, pg. 45.

 

WHISKEY AND WATER (Uisge Agus Uisge-Beata). AKA and see “Wink and I’ll Follow You.” Irish, Single Jig. E Dorian. Standard tuning. AABB'. O'Neill (Music of Ireland: 1850 Melodies), 1903/1979; No. 874, pg. 162. O'Neill (Dance Music of Ireland: 1001 Gems), 1907/1986; No. 377, pg. 76.

